svg/fluentui-system-icons/ic_fluent_money_off_24_regular.svg

<svg width="24" height="24" viewBox="0 0 24 24" fill="none" xmlns="http://www.w3.org/2000/svg">
<path d="M3.28033 2.21967C2.98744 1.92678 2.51256 1.92678 2.21967 2.21967C1.92678 2.51256 1.92678 2.98744 2.21967 3.28033L3.9581 5.01876C2.85336 5.16187 2 6.10628 2 7.25V14.75C2 15.9926 3.00736 17 4.25 17H15.9393L17.4342 18.4949C17.3733 18.4983 17.3118 18.5 17.25 18.5H4.40137C4.92008 19.3967 5.8896 20 7.00002 20H17.25C17.7596 20 18.2504 19.9198 18.7106 19.7712L20.7197 21.7803C21.0126 22.0732 21.4874 22.0732 21.7803 21.7803C22.0732 21.4874 22.0732 21.0126 21.7803 20.7197L3.28033 2.21967ZM14.4393 15.5H6.5V14.75C6.5 13.5074 5.49264 12.5 4.25 12.5H3.5V9.5H4.25C5.39372 9.5 6.33813 8.64664 6.48124 7.5419L8.11684 9.1775C7.72992 9.6827 7.5 10.3145 7.5 11C7.5 12.6569 8.84315 14 10.5 14C11.1855 14 11.8173 13.7701 12.3225 13.3832L14.4393 15.5ZM9.19654 10.2572L11.2428 12.3035C11.0238 12.4285 10.7702 12.5 10.5 12.5C9.67157 12.5 9 11.8284 9 11C9 10.7298 9.07147 10.4762 9.19654 10.2572ZM3.5 7.25C3.5 6.83579 3.83579 6.5 4.25 6.5H5V7.25C5 7.66421 4.66421 8 4.25 8H3.5V7.25ZM4.25 15.5C3.83579 15.5 3.5 15.1642 3.5 14.75V14H4.25C4.66421 14 5 14.3358 5 14.75V15.5H4.25ZM16.75 12.5C16.4349 12.5 16.1348 12.5648 15.8626 12.6818L17.1808 14H17.5V14.3192L18.8182 15.6374C18.9352 15.3652 19 15.0651 19 14.75V7.25C19 6.00736 17.9926 5 16.75 5H8.18078L9.68078 6.5H14.5V7.25C14.5 8.49264 15.5074 9.5 16.75 9.5H17.5V12.5H16.75ZM17.5 7.25V8H16.75C16.3358 8 16 7.66421 16 7.25V6.5H16.75C17.1642 6.5 17.5 6.83579 17.5 7.25ZM20.0618 16.881L21.1472 17.9664C21.6847 17.1966 22 16.2601 22 15.25V10C22 8.8896 21.3967 7.92008 20.5 7.40137V15.25C20.5 15.8445 20.3404 16.4016 20.0618 16.881Z" fill="#212121"/>
</svg>

<svg xmlns="http://www.w3.org/2000/svg" width="24" height="24"><path d="M3.28 2.22a.75.75 0 0 0-1.06 1.06l1.738 1.74A2.25 2.25 0 0 0 2 7.25v7.5A2.25 2.25 0 0 0 4.25 17h11.69l1.494 1.495a3.7 3.7 0 0 1-.184.005H4.401A2.999 2.999 0 0 0 7 20h10.25c.51 0 1-.08 1.46-.229l2.01 2.01a.75.75 0 1 0 1.06-1.061L3.28 2.22ZM14.44 15.5H6.5v-.75a2.25 2.25 0 0 0-2.25-2.25H3.5v-3h.75a2.25 2.25 0 0 0 2.231-1.958l1.636 1.636a3 3 0 0 0 4.206 4.206l2.116 2.116Zm-5.243-5.243 2.046 2.046a1.5 1.5 0 0 1-2.046-2.046ZM3.5 7.25a.75.75 0 0 1 .75-.75H5v.75a.75.75 0 0 1-.75.75H3.5v-.75Zm.75 8.25a.75.75 0 0 1-.75-.75V14h.75a.75.75 0 0 1 .75.75v.75h-.75Zm12.5-3a2.24 2.24 0 0 0-.887.182L17.18 14h.319v.32l1.318 1.317a2.24 2.24 0 0 0 .182-.887v-7.5A2.25 2.25 0 0 0 16.75 5H8.18l1.5 1.5h4.82v.75a2.25 2.25 0 0 0 2.25 2.25h.75v3h-.75Zm.75-5.25V8h-.75a.75.75 0 0 1-.75-.75V6.5h.75a.75.75 0 0 1 .75.75Zm2.562 9.631 1.085 1.085c.538-.77.853-1.706.853-2.716V10a3 3 0 0 0-1.5-2.599v7.849a3.24 3.24 0 0 1-.438 1.631Z"/></svg>
